!!!!SEGMENT: pl-wtm--r-730-6-m_moniuszko-stanislaw--galop.krn
!!!cenid: 18xx:1683
!!!COM: Moniuszko, Stanisław
!!!COM-rismid: pe30008351
!!!CDT: 1819/05/05-1872/06/04
!!!CNT: Polish
!!!OTL: Galop
!!!PDT:
!!!AGN: Secular; Galop
!!!SMS-siglum: PL-Wtm
!!!SMS-shelfmark: R 730/6/M
!!!SMS-shelfwork: W
!!!SMS-variant:
!!!SMS-altvar:
!!!NIFC-rismid: 1001099728
!!!URL-scan: http://repozytorium.nifc.pl/skany/pl-wtm-nut--r730m-1-43
!!!ONB-nifc: Skan 0013. No. 755
**kern	**kern	**dynam
*part1	*part1	*part1
*staff2	*staff1	*
*clefF4	*clefG2	*
*k[f#]	*k[f#c#]	*
*M2/4	*M2/4	*
*>[A,B,B,C]	*>[A,B,B,C]	*
=1	=1	=1
*>A	*>A	*
*^	*	*
!LO:TX:a:t=P:problem:przy kluczu brak krzyżyka c#	!	!	!LO:DY:rj
4AA/	4ryy	8aL 8c#/	f
.	.	16a/L	.
.	.	16b/JJ	.
4BB/	4AA\	8aL 8d/	.
.	.	16a/L	.
.	.	16b/JJ	.
=2	=2	=2	=2
4Cn/	4AA\	8aL 8d#X/	.
.	.	16a/L	.
.	.	16b/JJ	.
4C#X/	4AA\	8aL 8e/	.
.	.	16a/L	.
.	.	16b/JJ	.
=3	=3	=3	=3
4D/	4AA\	8aL 8e#X/	.
.	.	16a/L	.
.	.	16b/JJ	.
4D#X/	4AA\	8aL 8fn/	.
.	.	16a/L	.
.	.	16b/JJ	.
=4	=4	=4	=4
*	*	*^	*
8E/	8AA\	8a/L	8g\	.
!LO:SIC:v:n=3:s=8C#	!	!	!	!
8GL 8E 8C 8AA\	8ryy	16ff#/L	8rg	.
.	.	16ee/JJ	.	.
!LO:SIC:v:n=3:s=8C#	!	!	!	!
8G 8E 8C 8AA\	4ryy	16ff#/LL	4r	.
.	.	16ee/	.	.
!LO:SIC:v:n=3:s=8C#	!	!	!	!
8GJ 8E 8C 8AA\	.	16cc#/	.	.
.	.	16a/JJ	.	.
*v	*v	*	*	*
*	*v	*v	*
=5||	=5||	=5||
!	!LO:TX:a:t=P:problem:mixed beam	!LO:DY:rj
8DD/	8.aaL 8.ff#\	p
8r	.	.
.	16a/Jk	.
4d 4A 4F#^\	4ff# 4dd\	.
=6	=6	=6
!	!LO:TX:a:t=P:problem:mixed beam	!
8DD/	8.aaL 8.ff#\	.
8r	.	.
.	16a/Jk	.
4d 4A 4F#^\	8ff# 8dd\	.
.	16aaLL 16a\	.
.	16aaJJ 16a\	.
=7	=7	=7
8D\L	8aaL 8a\	.
8d 8A 8F#\	8bb 8b\	.
8d 8A 8F#\	8ccc# 8cc#\	.
8dJ 8A 8F#\	8dddJ 8dd\	.
=8	=8	=8
!	!LO:S:s=2:note:problem:note-level slur	!
4AA/	(4ddd#X (>4dd#X\	.
8c# 8G 8E\	8eee) 8ee\)	.
8r	8r	.
!!LO:LB:g=original
=9	=9	=9
*k[f#c#]	*	*
8AA/	8.ff#L 8.cc#\	.
8r	.	.
.	16a\Jk	.
4c# 4G 4E^\	4ee 4cc#\	.
=10	=10	=10
8AA/	8.ff#L 8.cc#\	.
8r	.	.
.	16a\Jk	.
4c# 4G 4E^\	8ee 8cc#\	.
.	16aaLL 16a\	.
.	16aaJJ 16a\	.
=11	=11	=11
!LO:TX:a:t=P:problem:mixed beam	!	!
8AA/L	8bbL 8b\	.
8c# 8G 8E\	8ccc# 8cc#\	.
8c# 8G 8E\	8ddd 8dd\	.
8c#J 8G 8E\	8eeeJ 8ee\	.
=12	=12	=12
!	!LO:S:s=2:note:problem:note-level slur	!
4D\	(4eee#X (>4ee#X\	.
8d 8A 8D\	8fff#) 8ff#\)	.
8r	8r	.
=13	=13	=13
8DD/	8.ff#L 8.dd\	.
8r	.	.
.	16a\Jk	.
4d 4A 4F# 4D^\	4aa 4ff#\	.
=14	=14	=14
8DD/	8.ff#L 8.dd\	.
8r	.	.
.	16a\Jk	.
4d 4A 4F# 4D^\	8aaL 8ff#\	.
.	16gg#X\L	.
.	16aa\JJ	.
=15	=15	=15
8DD/	8fff#L 8ff#\	.
8dL 8A 8F# 8D\	8eee 8ee\	.
8d 8A 8F# 8D\	8ddd 8dd\	.
8dJ 8A 8F# 8D\	8ccc#J 8cc#\	.
=16	=16	=16
!LO:TX:a:t=P:problem:mixed beam	!	!
8GG/L	(4ccc# 4cc#\	.
8d 8B 8G\	.	.
8dJ 8B 8G\	8bb 8b\)	.
8r	(16cc#\LL	.
.	16b\JJ)	.
=17	=17	=17
!LO:TX:a:t=P:problem:mixed beam	!	!
8GG#X/L	8a#X\L	.
8d 8B 8E#X\	8b\	.
8d 8B 8E#\	8cc#\	.
8dJ 8B 8E#\	8dd\J	.
=18	=18	=18
!LO:TX:a:t=P:problem:mixed beam	!	!
8AA/L	8a\L	.
8d 8A 8F#\	8dd\J	.
8d 8A 8F#\	(4ff#^<\	.
8dJ 8A 8F#\	.	.
=19	=19	=19
!LO:TX:a:t=P:problem:mixed beam	!	!
8AA/L	16ff#\LL)	.
.	16ee\	.
8c# 8G 8E\	16dd#X\	.
.	16ee\JJ	.
8c# 8G 8E\	8ff#\L	.
8c#J 8G 8E\	8gg\J	.
!!LO:LB:g=original
=20	=20	=20
!LO:TX:a:t=P:problem:mixed beam	!	!
8DD/L	8bb\L	.
8dJ 8F# 8D\	8aa\	.
!LO:TX:a:t=P:problem:mixed beam	!	!
8FF#/L	8ff#\J	.
8dJ 8A 8F#\	8ddd 8dd\	.
=21	=21	=21
!LO:TX:a:t=P:problem:mixed beam	!	!
8GG#X/L	8aa#XL 8a#X\	.
8d 8B 8E#X\	8bb 8b\	.
8d 8B 8E#\	8ccc# 8cc#\	.
8dJ 8B 8E#\	8dddJ 8dd\	.
=22	=22	=22
!LO:TX:a:t=P:problem:mixed beam	!	!
8AA/L	8aaL 8a\	.
8d 8A 8F#\	8dddJ 8dd\	.
8d 8A 8F#\	[4fff# 4ff#\	.
8dJ 8A 8F#\	.	.
=23	=23	=23
!LO:TX:a:t=P:problem:mixed beam	!	!
8AAL 8AAA/	(16fff#\LL]	.
.	16eee\	.
8c# 8G 8E\	16ddd#X\	.
.	16eee\JJ)	.
8c# 8G 8E\	(8aaa\L	.
8c#J 8G 8E\	8ggg\J)	.
=24	=24	=24
!LO:TX:a:t=P:problem:mixed beam	!	!
8DD/L	8ddd\L	.
8dJ 8D\	8fff#J 8aa\	.
4d 4D\	4ddd 4ff#\	.
=25!|:	=25!|:;	=25!|:
*>B	*>B	*
8E\L	8cc#\L	p
8d 8B\	8b\	.
8E\	8a\	.
8dJ 8B\	8g\J	.
=26	=26	=26
!LO:TX:a:t=P:problem:mixed beam	!	!
8EE//L	(8f#t/L	.
8d 8B 8G 8E\	8e/J)	.
8d 8B 8G 8E\	[4ccc# 4cc#\	.
8dJ 8B 8G 8E\	.	.
=27	=27	=27
!LO:TX:a:t=P:problem:mixed beam	!	!
8GG#X/L	16ccc#\LL]	.
.	16bb\	.
8d 8B 8E\	16aa#X\	.
.	16bb\JJ	.
8d 8B 8E\	8ccc#\L	.
8dJ 8B 8E\	8ddd\J	.
=28	=28	=28
*	*8va	*
!LO:TX:a:t=P:problem:mixed beam	!	!
8AA/L	8eee\L	.
8c# 8A 8E\	8aaa\J	.
8c# 8A 8E\	8cccc#\L	f
8c#J 8A 8E\	16cccc#\L	.
.	16dddd\JJ	.
=29	=29	=29
8E\L	8cccc#\L	.
8d 8B 8G\	8bbb\	.
8E\	8aaa\	.
8dJ 8B 8G\	8ggg\J	.
=30	=30	=30
!LO:TX:a:t=P:problem:mixed beam	!	!
8EE/L	(8fff#\L	.
8d 8B 8G 8E\	8eee\J)	.
8d 8B 8G 8E\	8r	.
8dJ 8B 8G 8E\	16ddd#X\LL	.
.	16eee\JJ	.
=31	=31	=31
*rep	*	*
!LO:TX:a:t=P:problem:mixed beam	!	!
8EE/L	8ggg\L	.
8d 8B 8G 8E\	8fff#\	.
8d 8B 8G 8E\	8ddd\	.
8dJ 8B 8G 8E\	8bb\J	.
*Xrep	*	*
=32	=32	=32
!LO:TX:a:t=P:problem:mixed beam	!	!
8AA/L	8aa\L	.
8c#J 8A 8E\	16ccc#\L	.
.	16eee\JJ	.
4A 4C# 4AA\	4aaa\	.
*	*X8va	*
!!LO:LB:g=original
=33:|!	=33:|!	=33:|!
*>C	*>C	*
*k[f#]	*k[f#]	*
8r	16d/LL	.
.	16d/JJ	.
.	.	p
=34	=34	=34
8GG\L	8d'/L	.
8B 8D\	8g'/	.
8GG\	8d'/	.
8BJ 8D\	8b'/J	.
=35	=35	=35
*rep	*	*
!	!LO:TX:a:t=P:problem:mixed beam	!
8GG\L	8g/L	.
8B 8D\	8ee\J	.
8GG\	8dd\L	.
.	(8qee/	.
8BJ 8D\	16dd\L)	.
.	16cc#X\JJ	.
*Xrep	*	*
=36	=36	=36
*rep	*	*
8GG\L	8dd\L	.
8B 8D\	8ee\	.
8GG\	8ff#\	.
8BJ 8D\	8gg\J	.
*Xrep	*	*
=37	=37	=37
8C\L	(4gg\	.
8A 8G 8E\	.	.
8A 8G 8E\	8a/)	.
8AJ 8G 8E\	16ee\LL	.
.	16dd#X\JJ	.
=38	=38	=38
*rep	*	*
8C\L	8ff#\L	.
8A 8G 8E\	8ee\	.
8A 8G 8E\	8cc\	.
8AJ 8G 8E\	8a\J	.
*Xrep	*	*
=39	=39	=39
8E-X\L	(4g/	.
8c 8A\	.	.
8D\	8f#/)	.
8cJ 8A\	16f#/LL	.
.	16g/JJ	.
=40	=40	=40
!LO:TX:a:t=P:problem:mixed beam	!	!
8FF#/L	8b\L	.
8c 8A 8D\	8a\	.
8FF#/	8dd\	.
8cJ 8A 8D\	8cc\J	.
!!LO:LB:g=original
=41	=41	=41
!LO:TX:a:t=P:problem:mixed beam	!	!
8GG/L	(4a#X/	.
8B 8G 8D\	.	.
8BJ 8G 8D\	8b/)	.
8r	16ddLL 16d/	.
.	16ccJJ 16c/	.
=42	=42	=42
8GG\L	8ddL 8d\	.
8B 8D\	8gg 8g\	.
8GG\	8dd\	.
8BJ 8D\	8bbJ 8b\	.
=43	=43	=43
*rep	*	*
8GG\L	8gg\L	.
8B 8D\	8eee 8ee\	.
8GG\	8dddJ 8dd\	.
8BJ 8D\	16bbLL 16gg\	.
.	16aaJJ 16ff#\	.
*Xrep	*	*
=44	=44	=44
!LO:TX:a:t=P:problem:mixed beam	!	!
8BB/L	8ggL 8ee\	.
8B 8G 8D\	8ff# 8dd\	.
8B 8G 8D\	8ee 8cc\	.
8BJ 8G 8D\	8dd#XJ 8b\	.
=45	=45	=45
8C\L	(4ff# 4ddn\	.
8A 8G 8E\	.	.
8A 8G 8E\	8eeL 8cc\)	.
8AJ 8G 8E\	16dd#X\L	.
.	16ee\JJ	.
=46	=46	=46
8C\L	8aa'\L	.
8c 8A 8E\	8gg'\	.
8AA\	8ff#'\	.
8cJ 8A 8E\	8ee'\J	.
=47	=47	=47
8D\L	(8dd\L	.
8B 8G\	16gg\L	.
.	16bb\JJ	.
8D\	8ddd\L)	.
8BJ 8G\	(16ccc\L	.
.	16ddd\JJ)	.
=48	=48	=48
!LO:TX:a:t=P:problem:mixed beam	!	!
8DD/L	8fff#L 8ff#\	.
8c 8A 8D\	8eee 8ee'\	.
8c 8A 8D\	8ccc 8cc'\	.
8cJ 8A 8D\	8aaJ 8a'\	.
=49	=49	=49
8BL 8G\	8ggL 8g'\	.
8GJ 8GG\	(8bbJ 8dd\	.
4G 4GG\	4gg 4b\)	.
==	==	==
*-	*-	*-
!!!system-decoration: [s1,s2]
!!!RDF**kern: > = above
!!!RDF**kern: < = below
!!!RDF**dynam: p = "p."
!!!RDF**dynam: f = "f."
!!!ENC: Marta Lawrence
!!!END: 2021-04-22
!!!ENC: Berenika Jozajtis
!!!END: 2021-04-03
